X:127
T:Vals efter August Jansson i Gatersered
T:(SvL Halland 127)
R:Vals
O:Släp, Halland
S:Fritz Oskar Brogren
S:August Jansson
B:Svenska Låtar Halland
N:SvL: Låten ansågs vara från Askim i Västergötland. Fritz Brogren hade den från August Jansson i Gatersered.
M:3/4
L:1/8
K:D
A2|A2 (FD) FA|A2 (FD) FA|(A2 .G2) .G2|(F4 .F2)|
E3 G FE|.D2 .F2 .A2|B3 d cB|A4:|
|:A2|A2 dd dd|d2 (cd) cB|A2 dd dd|d2 (cd) cB|
c2 (Bd) cB|A2 (FD) FA|G2 (EC) EC|D2 z2:|

